svg/OSM-icons/amenity #7bffff °373737 !label=enamenities,deEinrichtungen/12048;amenity=ferry_terminal;!name=;!cargo=;feature_group=shipping;[contact];!label=enferry terminal,deFähr- Anlegestelle.svg

<svg xmlns="http://www.w3.org/2000/svg" viewBox="0 0 580 580" enable-background="new 0 0 580 580"><path fill="#111" stroke="#eee" stroke-width="3.408" d="m66.28 1.768c-41.34 0-64.57 21.371-64.57 65.04v450.12c0 40.844 20.895 62.23 62.19 62.23h452.02c41.31 0 62.23-20.315 62.23-62.23v-450.12c0-42.601-20.924-65.04-63.52-65.04-.004 0-448.5-.143-448.35 0z"/><g fill="#fff"><path d="m400 175.26v162.86h105.71v-162.86h-105.71m77.14 94.29h-42.856v-45.715h42.856v45.715"/><path d="m268.57 395.26c76.43-2.143 86.43-54.29 162.86-48.571 25.291 1.891 49.48 13.797 70.54 28.878 17.01-21.617 27.841-49.917 29.3-81.2-4.619.689-9.34 1.051-14.12 1.051h-431.44c-4.785 0-9.475-.361-14.09-1.051 1.356 29.18 10.864 55.762 25.94 76.75 9.05-3.73 18.483-6.331 28.17-7.278 65.716-6.428 66.43 33.572 142.86 31.428"/><path opacity=".5" d="m501.97 375.57c-21.06-15.08-45.25-26.987-70.54-28.878-76.43-5.714-86.43 46.43-162.86 48.571-76.43 2.145-77.14-37.855-142.86-31.428-9.684.947-19.12 3.548-28.17 7.278-52.36 21.585-91.83 81.29-91.83 81.29l568.57-2.857c0 0-29.742-43.486-72.32-73.98"/></g></svg>

<?xml version="1.0" encoding="utf-8"?>
<!-- Generator: Adobe Illustrator 15.0.0, SVG Export Plug-In . SVG Version: 6.00 Build 0)  -->
<!DOCTYPE svg PUBLIC "-//W3C//DTD SVG 1.1//EN" "http://www.w3.org/Graphics/SVG/1.1/DTD/svg11.dtd">
<svg version="1.1" xmlns="http://www.w3.org/2000/svg" xmlns:xlink="http://www.w3.org/1999/xlink" x="0px" y="0px" width="580px"
	 height="580px" viewBox="0 0 580 580" enable-background="new 0 0 580 580" xml:space="preserve">
<g id="Layer_1">
	<g id="Layer_2">
		<g id="g1327">
			<path id="path1329" fill="#111111" stroke="#EEEEEE" stroke-width="3.408" d="M66.275,1.768
				c-41.335,0-64.571,21.371-64.571,65.036v450.123c0,40.844,20.895,62.229,62.192,62.229H515.92
				c41.307,0,62.229-20.315,62.229-62.229V66.804c0-42.601-20.924-65.036-63.521-65.036C514.624,1.768,66.133,1.625,66.275,1.768z"
				/>
		</g>
	</g>
</g>
<g id="Layer_3">
	<path fill="#FFFFFF" d="M400,175.263v162.856h105.714V175.263H400z M477.143,269.549h-42.856v-45.715h42.856V269.549z"/>
	<path fill="#FFFFFF" d="M268.571,395.262C345,393.119,355,340.977,431.429,346.691c25.291,1.891,49.484,13.797,70.54,28.878
		c17.014-21.617,27.841-49.917,29.295-81.204c-4.619,0.689-9.34,1.051-14.125,1.051H85.7c-4.785,0-9.475-0.361-14.094-1.051
		c1.356,29.18,10.864,55.762,25.94,76.747c9.051-3.73,18.483-6.331,28.167-7.278C191.429,357.406,192.144,397.406,268.571,395.262z"
		/>
	<path opacity="0.5" fill="#FFFFFF" d="M501.969,375.569c-21.056-15.081-45.249-26.987-70.54-28.878
		C355,340.977,345,393.119,268.571,395.262c-76.428,2.145-77.143-37.855-142.857-31.428c-9.684,0.947-19.116,3.548-28.167,7.278
		c-52.364,21.585-91.833,81.294-91.833,81.294l568.572-2.857C574.286,449.549,544.544,406.063,501.969,375.569z"/>
</g>
</svg>
